X: 1
T: Anniversary Waltz    [Dm]
T: Chanesse Valts
O: Eastern European Jewish
Z: 2018 John Chambers <jc:trillian.mit.edu>
S: Printed page of unknown origin
L: 1/4
M: 3/4
R: Waltz
K: Dm
|: "A7"A,3- | A, ^C D | E3- | E ^C A, | "Dm"F3- | F E D | A3- | "D7"A3 |
| "Gm"BB>B | "(C)"B A G | "Dm"A A2  | "(Bb)"A G F | "A7"E2 G | F2 E |\
[1 "Dm"D3 | D C B, :|[2 "Dm"D3- | D3 :|
|: "Bb"[dB] [dB]>[dB] | "(C7)"[dB] [dB]>[dB] | "F"[dB] [cA]>[AF] | [c3A3] \
| "Gm(C7)"[BG] [BG]>[BG] | [BG] [cA]>[BG] | "F"[BG] [AF]>[^GE] | [A3F3] |
| "Gm"[GE] [GE]>[GE] | [GE] [AF]>[GE] | "Dm"[GE] [FD] [E^C] | [D3A,3] \
| "Gm"[dB] [BG] [GD] | "A7"[F2A,2] [E^C] | "Dm"[D3D3]- | [D3D3] :|
